src/pos-icons/select-color.svg

<svg height="24" viewBox="0 0 24 24" width="24" xmlns="http://www.w3.org/2000/svg"><path d="m3.88 3c-.5.06-.88.5-.88 1v1h1 1v-1-1h-1zm3.12 0v2h2v-2zm4 0v2h2v-2zm4 0v2h2v-2zm4 0v1 1h1 1v-1-.12c-.06-.5-.5-.88-1-.88zm-16 4v2h2v-2zm16 0v2h2v-2zm-16 4v2h2v-2zm16.31 1c-.13 0-.26.05-.36.14l-1.56 1.57-.96-.96-.71.71.71.71-4.46 4.46v2.37h2.38l4.45-4.46.7.71.72-.71-.96-.96 1.56-1.55c.18-.2.18-.53 0-.72l-1.17-1.17c-.09-.09-.21-.14-.34-.14m-16.31 3v2h2v-2zm14 0 .97.97-4.04 4.03-.96-.96zm-14 4v1 .12c.06.5.5.88 1 .88h1v-1-1h-1zm4 0v2h2v-2z"/></svg>

<?xml version="1.0" encoding="UTF-8"?><!DOCTYPE svg PUBLIC "-//W3C//DTD SVG 1.1//EN" "http://www.w3.org/Graphics/SVG/1.1/DTD/svg11.dtd"><svg xmlns="http://www.w3.org/2000/svg" xmlns:xlink="http://www.w3.org/1999/xlink" version="1.1" id="mdi-select-color" width="24" height="24" viewBox="0 0 24 24"><path d="M3.88,3C3.38,3.06 3,3.5 3,4V4L3,5H4L5,5V4L5,3H4L3.88,3M7,3V5H9V3H7M11,3V5H13V3H11M15,3V5H17V3H15M19,3V4L19,5H20L21,5V4L21,3.88C20.94,3.38 20.5,3 20,3H19M3,7V9H5V7H3M19,7V9H21V7H19M3,11V13H5V11H3M19.31,12C19.18,12 19.05,12.05 18.95,12.14L17.39,13.71L16.43,12.75L15.72,13.46L16.43,14.17L11.97,18.63V21H14.35L18.8,16.54L19.5,17.25L20.22,16.54L19.26,15.58L20.82,14.03C21,13.83 21,13.5 20.82,13.31L19.65,12.14C19.56,12.05 19.44,12 19.31,12M3,15V17H5V15H3M17,15L17.97,15.97L13.93,20L12.97,19.04L17,15M3,19V20L3,20.12C3.06,20.62 3.5,21 4,21V21H5V20L5,19H4L3,19M7,19V21H9V19H7Z" /></svg>
